X:1
T:Tirrhena mia
T:Eliseo Ghibel
T:Source : Primo libro de Madrigali a tre voci---Venetia---A.Gardano---1552. (First publication : Venetia---G.Scotto---1551) Editor : André Vierendeels (12/11/17). Notes : Original clefs : C1, C3, F3 Editorial accidentals above the staff 
T:Tirrhena mia
T:©
T:©
T:©
T:©
C:Eliseo Ghibel
Z:©
%%score [ 1 2 3 ]
L:1/8
Q:1/4=124
M:4/4
K:F
V:1 treble nm="Soprano" snm="S"
V:2 treble-8 nm="Tenor" snm="T"
V:3 bass nm="Bass" snm="B"
V:1
 z8 | z8 | G8 | B4 A4 | G4 z2 G2 | G4 F4 | G2 B3 A G2 | F2 F2 A2 A2 | B2 G2 A2 F2 | A2 B2 G4 | %10
w: ||Tir-|rhe- na|mia, il|cui col-|lor' ag- gua- li-|a le ma- tu-|ti- ne, ro- s'el|pu- ro lat-|
 F2 D2 EEFF | G2 C2 z2 D2 | AAFG A3 G | E2 A4 G2- | G2 E2 F2 D2- | D2 C2 D4 | z2 A2 A2 A2 | %17
w: te, piu ve- lo- ce che|dam- ma, piu|ve- lo- ce che dam- *|ma, dol- ce|_ del mio cor|_ fiam- ma,|dol- ce del|
 B2 G2 c4- | c4 B2 A2 | B4 z2 G2 | c4 c2 A2- | A2 A2 F2 D2 | G3 F E4 | D4 z4 | B4 B2 A2 | G4 F4 | %26
w: mio cor fiam-||ma, piu|cru- da di|_ co- lei che|fe'in thes- sa-|glia,|il pri- mo'al-|lo- ro|
 G2 G4 D2- | DEFG A2 B2 | A4 G2 G2 | F2 D2 E4 | D4 z2 c2 | B2 G2 A4 | G2 G4 F2 | G2 A2 B3 c | %34
w: di sue mem-|* * * * * br'at-|tra- te sol|per ri- me-|dio, sol|per ri- me-|dio del fe-|ri- to co- *|
 dB c3 B B2- | B2 A2 B4 | d4 c2 A2 | B4 A4 | G3 F E2 F2 | D3 E FG A2- | AG G4 F2 | G2 d2 c2 A2 | %42
w: |* * re,|vol- gi'a me|gli'oc- chi|o- ve s'an- ni-|d'a- * * * *|* * mo- *|re, vol- gi'a me|
 B4 A4 | G3 F E2 F2 | D3 E FG A2- | AG G4 F2 | G2 C2 _E2 D2 | C2 B,2 C2 D2 |"^b" E8 | D8 |] %50
w: gli'oc- chi|o- ve s'an- ni-|d'a- * * * *|* * mo- *|re, s'an- ni- d'a-||mo-|re.|
V:2
 z4 d4- | d4 f4 | e6 d2- | d2 B2 c2 A2 | B4 c4 | A8 | G4 d4 | d2 d2 e2 f2 | d2 d4 c2- | %9
w: Tir-|* rhe-|na mia,|_ il cui col-|lor' ag-|gua-|glia le|ma- tu- ti- ne|ro- s'el pu-|
"^#" cA d4 c2 | d2 z2 GAAB | B c2 A B2 z2 | A2 dd cc A2 | c2 f4 d2 | _e2 c4 B2 | G4 A4 | %16
w: * ro lat- *|te, piu ve- lo- ce|che _ dam- ma,|piu ve- lo- ce che dam-|ma, dol- ce|del mio cor|fiam- ma,|
 z2 f2 e2 f2 | d2 g4 f2 | g4 z2 d2 | g4 g2 e2- | e2 e2 c4- | c2 f2 d2 f2 |"^#" ed d4 c2 | %23
w: dol- ce del|mio cor fiam-|ma, piu|cru- da di|_ co- lei|_ che fe'in thes-|sa- * * *|
 d4 z2 f2 | f2 e2 d2 c2 | B2 d3 c A2 | B2 G3 A Bc | d3 e f2 g2- | g2 f2 g4 | z8 | z2 g4 f2 | %31
w: glia,, il|pri- mo'al- lo- ro|di sue _ _|mem- br'at- * * *||* tra- te,||sol pe|
 d2 e2 c2 d2- | d2 c2 B2 A2 | G2 F2 z2 d2- | d2 c2 d2 B2 | c4 d4- | d2 d2 e2 f2 | d6 c2- | %38
w: ri- me- dio del|_ fe- ri- to|co- re, del|_ fe- ri- to|co- re,|_ vol- gi'a me|gli'oc- chi|
 c2 B2 G2 A2 | BABc d4 | G4 A4 | d4 e2 f2 | d6 c2 | c2 B2 G2 A2 | BABc d4 | G4 A4 | G2 _e2 c2 d2 | %47
w: _ o- ve s'an-|ni- * * * d'a-|mo- re,|vol- gi'a me|gli'oc- chi|o- ve s'an- ni-|d'a- * * * *|* mo-|re, s'an- ni- d'a-|
 _e6 d2 | c8 | =B8 |] %50
w: |mo-|re.|
V:3
"^#" G,8 | B,4 A,4 | G,4 z2 G,2 | G,4 F,4 | G,4 C,4 | D,8 | G,2 G,4 B,2- | B,2 B,2 A,2 F,2 | %8
w: Tir-|rhe- na|mia, il|cui col-|lor' ag-|gua-|glia le ma-|* tu- ti- ne,|
 G,4 D,2 F,2- | F,2 G,2 E,4 | D,4 z2 D,2 | _E,E,F,F, G,2 D,2 | z2 D,2 A,A,F,G, | A,2 F,2 B,4 | %14
w: ro- s'el pu-|* ro lat-|te, piu|ve- lo- ce che dam- ma,|piu ve- lo- ce che|dam- ma, dol-|
 G,2 A,2 F,2 G,2 |"^b" E,4 D,4 | z2 D2 C2 D2 | B,2 C2 A,4 | G,8 | z2 G,2 C4 | C2 A,4 A,2 | %21
w: ce del mio cor|fiam- ma,|dol- ce del|mio cor fiam-|ma,|piu cru-|da di co-|
 F,2 F,2 B,3 A, | G,4 A,4 | z2 B,2 B,2 A,2 | G,4 F,4 | G,4 D,4 | G,2 C,D, E,F,G,A, | B,C D4 B,2 | %28
w: lei che fe'in thes-|sa- glia,|il pri- mo'al-|lo- ro,|di sue|mem- br'at- * * * * *||
 C2 D2 G,4 | z4 C4 | B,2 G,2 A,4 | G,2 G,2 F,2 D,2 | E,4 D,4 | D3 C B,A, B,2- | B,2 A,2 B,2 G,2 | %35
w: * tra- te,|sol|per ri- me-|dio, sol per ri-|me- dio|del _ _ _ _|_ fe- ri- to|
 F,4 B,,4 | B,4 A,2 F,2 | G,4 F,4 | z2 G,2 G,2 F,2 | G,4 D,4 | _E,4 D,4 |"^#" B,4 A,2 F,2 | %42
w: co- re,|vol- gi'a me|gli'oc- chi|o- ve s'an-|ni- d'a-|mo- re,|vol- gi'a me|
 G,4 F,4 | z2 G,2 G,2 F,2 | G,4 D,4 | _E,4 D,4 | z2 C,2 C,2 B,,2 | C,2 _E,3 D, B,,2 | C,8 | G,8 |] %50
w: gli'oc- chi|o- ve s'an-|ni- d'a-|mo- re,|o- ve s'an-|ni- d'a- * *|mo-|re.|

